!!!COM:	Praetorius, Michael
!!!OTL:	Christus der uns selig macht
**kern	**kern	**kern	**kern
*ICvox	*ICvox	*ICvox	*ICvox
*I"Bassus	*I"Tenor	*I"Altus	*I"Diskantus
*clefF4	*clefGv2	*clefG2	*clefG2
*k[]	*k[]	*k[]	*k[]
*M2/2	*M2/2	*M2/2	*M2/2
!!Meter Interpreted, Nat Condit-Schultz, 2018, Rule 2
*met(c)	*met(c)	*met(c)	*met(c)
2A	2c	2a	2ee
2A	2c	2a	2ee
2A	2c	2a	2ee
2E	2c	2g	2ee
2G	2B	2g	2dd
2A	2A	2e	2cc
1E	1G#	1e	1b
=	=	=	=
2r	2r	2r	2r
2AA	2c	2e	2a
2C	2c	2e	2g
2AA	2c	2f#	2a
2GGn	2d	2g	2b
2C	2e	2g	2cc
2.Gn	2.B	1.g	2.dd
4E	4c	.	4ee
2G	2B	.	2dd
2A	2A	2e	2cc
1E	1G#	1e	1b
=	=	=	=
2Fn	2A	2c	2a
2Dn	2F	2d	2b
2C	2Gn	2e	2cc
2GG	2G	2d	2b
2AA	2E	2c#	2a
2AA	2E	2c#	2a
1AA	1A	1c#	1e
=	=	=	=
2D	2A	2d	2f
2C	2E	2A	2e
2BB	2G	2B	2d
2AA	2C	2cn	2e
2.GG	2.D	2.B	2.g
4FF	4F	8cL	4a
.	.	8dJ	.
2C	2E	2e	2g
2D	2A	2d	2f
1AA	1A	1c	1e
=	=	=	=
2F	2A	2c	2a
2D	2d	2f	2a
2AA	2c	2e	2a
2BB	2G	2d	2g
2C	2G	2c	2e
2GG	2G	2B	2d
1C	1G	1e	1c
=	=	=	=
2E	2G	2B	2g
2D	2F#	2d	2a
2G	2G	2d	2b
2E	2G	2e	2cc
2.D	2.A	2.f	2.dd
4C	4c	4g	4ee
2G	2B	2d	2dd
2A	2e	2a	2cc
1E	1e	1g	1b
=	=	=	=
2A	2c	2e	2a
2E	2e	2g	2b
2A	2e	2a	2cc
2G	2B	2d	2b
2D	2d	2f	2a
2F	2A	2c	2a
1C	1G	1c	1e
=	=	=	=
2FF	2A	2c	2f
2C	2G	2c	2e
2D	2F	2A	2d
2C	2G	2c	2e
2.C	2.G	2.e	2.g
4AA	4F	4c	4a
2C	2E	2e	2g
2D	2A	2d	2f
4AA	1A	1c	[00e
4BB	.	.	.
4C	.	.	.
4D	.	.	.
00E	00G#	00B	.
.	.	.	1e]
==	==	==	==
*-	*-	*-	*-
